X: 180
T: Como Poden
C:King Alfonso X
B: steve song book
M:6/8
Q: 3/8=100
K:DDorian
V:1 
zFF|"Dm"FED F2G|A2A zAA|cBcd2c/B/|A2 A zAG|
FED F2G|A2A zAG|FED "C"EDC|"Dm"D2D zcc|
"Dm"cBGA2B|c2c zcd|cBG A2B|"C"G2G zcc|
"Dm"cBGA2B|c2c zcd|cBG A2B|"C"G2G zAG|
"Dm"FED F2G|A2A zAA|cBcd2c/B/|A2 A zAG|
FED F2G|A2A zAG|FED "C"EDC|"Dm"D2D||
W: Let us sing aloud with gladness, dance with joy and exaltation
W: Make an end to woe and sadness in ecstatic jubilation.
W: I shall now relate the story, listen hard to my narration,
W: It's a tale that ends in glory though it starts with tribulation.
W: This old man decayed and hoary, without movement or sensation,
W: In his limbs diseased and gory has been cured through knowledge and passion.
W: 
W: Never more the ruthless rigour, of that cruel mutilation,
W: Shall embitter or disfigure, both his life and his vocation.
W: Now his strength's returned with vigour, through his blessed rejuvenation,
W: And his faith has grown much bigger, since his thrilling restoration.
W: This old man decayed and hoary, without movement or sensation,
W: In his limbs diseased and gory has been cured through knowledge and passion.
W: 
W: Como poden per sas culpas, os o-mes-se-er con trei-tos
W: As si poden pel a virgen, de pois seer saos feitos.
W: Ond' a ye-o a un o-me, porpe-ca-dis que fe-le-tion
W: Que foi to-llei-to dos nembros, d'u-a do-or que ou-ve-ra.
W: Et du rou as si cinc a nos que mo-ve-se no po-de-ra
W: As-si a-vi-a os nembros , todos do corpo mal treitos
W: 
% abcbook-tune_id 62a0005ea08c6cf36b67abed


% abcbook-boost 0
% abcbook-tablature 
% abcbook-transpose 
% abcbook-lastupdated 1654695875780
% abcbook-soundfonts 
% abcbook-repeats 1


